packages/core/src/svgs/tokens/branded/EVEAI.svg

<svg width="24" height="24" viewBox="0 0 24 24" fill="none" xmlns="http://www.w3.org/2000/svg">
<path fill-rule="evenodd" clip-rule="evenodd" d="M12.0824 20.8235C15.7412 20.8235 18.8706 18.5059 20.1412 15.2352H21.5118L22 14.3529H20.4294C20.5058 14.0647 20.5706 13.7647 20.6177 13.4705H22V12.5883H20.7176C20.7493 12.0983 20.7414 11.6065 20.6942 11.1176H22L21.6706 10.2353H20.5647C20.1841 8.25981 19.1312 6.4771 17.5848 5.19024C16.0385 3.90338 14.0941 3.19178 12.0824 3.17645C10.0686 3.18908 8.12149 3.89944 6.57267 5.18652C5.02388 6.47362 3.96918 8.25784 3.58823 10.2353H2.32352L2 11.1176H3.4647C3.41712 11.6063 3.40925 12.0983 3.44118 12.5883H2V13.4705H3.54117C3.58823 13.7647 3.65882 14.0647 3.73529 14.3529H2L2.48823 15.2352H4.01765C4.85117 17.3994 6.50692 19.1462 8.62352 20.094C8.74118 20.4589 9.08823 20.7294 9.50582 20.7294C10.0058 20.7294 10.4117 20.3353 10.4117 19.847C10.4117 19.3647 9.99994 18.9647 9.50006 18.9647C9.25293 18.9647 9.02941 19.0646 8.86471 19.2177C7.12971 18.4059 5.74961 16.9903 4.98234 15.2352H7.04705V15.1765C7.57962 16.0066 8.31233 16.6894 9.17781 17.1621C10.0433 17.635 11.0137 17.8827 12 17.8823V20.8235H12.0824ZM19.8354 12.5883C19.8697 12.0981 19.8598 11.6059 19.8058 11.1176H17.8235C17.8964 11.6044 17.9082 12.0985 17.8589 12.5883H19.8411H19.8354ZM17.6999 13.4705C17.6176 13.7765 17.5177 14.0706 17.3941 14.3529H19.5059C19.5941 14.0647 19.6647 13.7706 19.7235 13.4705H17.6942H17.6999ZM13.1764 19.847C15.8647 19.4588 18.1059 17.6705 19.1765 15.2352H16.953V15.1765C16.5282 15.8382 15.9752 16.4081 15.3265 16.8526C14.678 17.2972 13.9468 17.6073 13.1764 17.7647V19.847ZM19.6588 10.2353C19.3208 8.68452 18.5202 7.27281 17.3628 6.1868C16.2054 5.10078 14.7455 4.39157 13.1764 4.15293V6.23527C15.2823 6.66469 16.9765 8.21175 17.6118 10.2353H19.6588ZM4.65882 14.3529C4.5647 14.0647 4.49411 13.7706 4.44117 13.4705H6.30588C6.38234 13.7765 6.48235 14.0706 6.60588 14.3529H4.65293H4.65882ZM4.32941 12.5883H6.14706C6.09785 12.0984 6.10971 11.6044 6.18235 11.1176H4.35882C4.30483 11.6059 4.29498 12.0981 4.32941 12.5883ZM6.38823 10.2353H4.5C4.87251 8.51339 5.81611 6.96798 7.17761 5.84994C8.5391 4.73192 10.2385 4.10693 12 4.07646V7.11176C13.1956 7.10926 14.3506 7.54502 15.2466 8.33662C16.1426 9.12821 16.7175 10.2207 16.8624 11.4076C17.0074 12.5943 16.7123 13.7931 16.033 14.7769C15.3538 15.7609 14.3375 16.4617 13.1764 16.7471V15.3118H13.9176C14.1706 15.3118 14.3765 15.1 14.3765 14.8412C14.3765 14.5823 14.1706 14.3705 13.9176 14.3705H13.1764V13.6C14.5471 13.1882 15.5294 12.1058 15.5294 10.8236C15.5294 9.19998 13.9471 7.88233 12 7.88233C10.0529 7.88233 8.47058 9.19998 8.47058 10.8236C8.47058 12.447 10.0529 13.7647 12 13.7647V14.3705H10.8705C10.7484 14.3737 10.6323 14.4247 10.5475 14.5128C10.4628 14.601 10.4161 14.7189 10.4176 14.8412C10.4176 15.1 10.6176 15.3118 10.8705 15.3118H12V16.8882C10.8821 16.8898 9.79749 16.5083 8.9268 15.807C8.05617 15.1059 7.45218 14.1274 7.21549 13.0349C6.97883 11.9423 7.12378 10.8017 7.62619 9.80308C8.12861 8.80444 8.95812 8.00818 9.97647 7.54705L10.0941 7.55881C10.6 7.55881 11.0118 7.1647 11.0118 6.67645C11.0118 6.18822 10.6 5.79411 10.1 5.79411C9.96975 5.79175 9.84059 5.81785 9.72159 5.87062C9.60245 5.92339 9.49635 6.00152 9.41071 6.09957C9.32492 6.19761 9.26165 6.31321 9.22529 6.43825C9.1889 6.5633 9.18027 6.69479 9.19999 6.82352C7.87058 7.54705 6.84706 8.76469 6.38823 10.2353ZM14.553 10.8236C14.553 12 13.4118 12.947 12 12.947C10.5882 12.947 9.44708 12 9.44708 10.8236C9.44708 9.64702 10.5882 8.69999 12 8.69999C13.4118 8.69999 14.553 9.64702 14.553 10.8236Z" fill="white"/>
</svg>

<svg xmlns="http://www.w3.org/2000/svg" width="24" height="24" fill="none" viewBox="0 0 24 24">
    <path fill="#fff" fill-rule="evenodd" d="M12.082 20.824c3.66 0 6.789-2.318 8.06-5.589h1.37l.488-.882h-1.57a9 9 0 0 0 .188-.883H22v-.882h-1.282q.046-.736-.024-1.47H22l-.33-.883h-1.105a8.706 8.706 0 0 0-8.483-7.059 8.706 8.706 0 0 0-8.494 7.06H2.324L2 11.117h1.465q-.072.733-.024 1.47H2v.883h1.541c.047.294.118.594.194.882H2l.488.882h1.53a8.78 8.78 0 0 0 4.606 4.859.92.92 0 0 0 .882.635c.5 0 .906-.394.906-.882 0-.482-.412-.882-.912-.882-.247 0-.47.1-.635.253a7.88 7.88 0 0 1-3.883-3.983h2.065v-.058A5.88 5.88 0 0 0 12 17.882v2.941zm7.753-8.236q.052-.736-.03-1.47h-1.982c.073.486.085.98.036 1.47h1.982zm-2.135.883q-.121.459-.306.882h2.112q.13-.432.218-.883h-2.03zm-4.524 6.376c2.689-.388 4.93-2.177 6-4.612h-2.223v-.058a5.9 5.9 0 0 1-3.777 2.588zm6.483-9.612a7.84 7.84 0 0 0-6.483-6.082v2.082a5.89 5.89 0 0 1 4.436 4zm-15 4.118a6.4 6.4 0 0 1-.218-.883h1.865q.114.459.3.883H4.653zm-.33-1.765h1.818c-.05-.49-.037-.984.035-1.47H4.36q-.081.733-.03 1.47m2.06-2.353H4.5A7.81 7.81 0 0 1 12 4.076v3.036a4.888 4.888 0 0 1 1.176 9.635v-1.435h.742a.466.466 0 0 0 .459-.47.466.466 0 0 0-.46-.472h-.74v-.77c1.37-.412 2.352-1.494 2.352-2.776 0-1.624-1.582-2.942-3.529-2.942S8.47 9.2 8.47 10.824c0 1.623 1.583 2.94 3.53 2.94v.607h-1.13a.465.465 0 0 0-.452.47c0 .259.2.47.453.47H12v1.577a4.888 4.888 0 0 1-2.024-9.341l.118.012c.506 0 .918-.394.918-.883 0-.488-.412-.882-.912-.882a.894.894 0 0 0-.9 1.03 5.9 5.9 0 0 0-2.812 3.411m8.164.589c0 1.176-1.141 2.123-2.553 2.123S9.447 12 9.447 10.824 10.588 8.7 12 8.7s2.553.947 2.553 2.124" clip-rule="evenodd"/>
</svg>
